X: 27587
T: Montana, The
R: jig
M: 6/8
K: Dmajor
ABc|:d3 F2 A|GFG EFG|AFD dcd|ecA ABc|
d3 F2 A|GFG EFG|AFd BGE|1 AFD D2 c:|2 AFD D2b||
|:afd dfa|BcB Bcd|efg Bed|cAA ABc|
dAF Adf|gab Bcd|efg ABc|1 d3 d2b:|2 d3 ABc||

